X: 131
T: Miss Tytler's Strathspey
B: John Pringle "Collection of Reels Strathspeys & Jigs", 1801 p.13#1
Z: 2011 John Chambers <jc:trillian.mit.edu>
Q: "Slowish"
R: strathspey
M: C
L: 1/8
K: F
V: 1
c | A<FTF>C F<FTF>C | ~B>c d/c/B/A/ CG Gc/B/ | A<F~F>C B>c dc/B/ | f>c B/A/G/F/ CFF :|
e | f>cA>f gecA | F>ab>a ag Tg2{agfe}y| f>ac{_ed}^c dfBd | f>c (B/A/).G/.F/ CF F2{agfe}y|
f>cAf gecA | F>ab>a a>gg>A, | B,FF>=B, CAB>G | Ac (B/A/).G/.F/ CFF |]
V: 2 clef=bass middle=d
z | f2F2 f2f2 | B2=B2 c2C2 | f3_e [d2B2]B2 | c2C2 F2 f :|
z | f2f2 c2c2 | f2f2 c2c2y| f2f2 b2B2 | c2C2 F2f2y|
    f2f2 c2c2 | f2f2 c2c2 | B2d2 c2B2 | c2C2 F2f |]

%%sep 2 1 500

